X: 1
T: Marnie Swanson Of The Grey Coast
M: 3/4
L: 1/8
R: waltz
K: Gmaj
GB dB BG|AG GE ED|GB dB BG|ed ef g2|
GB dB BG|AG GE ED|G2F G2A|G6:|
Bd df fg|fd Be BA|Bd df fg|fdB e2d|
Bd df fg|fd Be BA|e2d B2A|e2d B2A|
Bd df fg|fd Be BA|Bd df fg|fdB e2d|
Bd df fg|fd Be BA|e2d B2A|G2E E2D|E6|
